;START_OF_HEADER
;HEADER_VERSION:0.1
;FLAVOR:Griffin
;GENERATOR.NAME:Cura_SteamEngine
;GENERATOR.VERSION:3.2.1
;GENERATOR.BUILD_DATE:2018-02-14
;TARGET_MACHINE.NAME:Ultimaker 3
;EXTRUDER_TRAIN.1.INITIAL_TEMPERATURE:207
;EXTRUDER_TRAIN.1.MATERIAL.VOLUME_USED:4953
;EXTRUDER_TRAIN.1.MATERIAL.GUID:506c9f0d-e3aa-4bd4-b2d2-23e2425b1aa9
;EXTRUDER_TRAIN.1.NOZZLE.DIAMETER:0.4
;EXTRUDER_TRAIN.1.NOZZLE.NAME:AA 0.4
;BUILD_PLATE.INITIAL_TEMPERATURE:70
;PRINT.TIME:2629
;PRINT.SIZE.MIN.X:46.475
;PRINT.SIZE.MIN.Y:6
;PRINT.SIZE.MIN.Z:0.27
;PRINT.SIZE.MAX.X:204
;PRINT.SIZE.MAX.Y:139.496
;PRINT.SIZE.MAX.Z:10.07
;END_OF_HEADER
;Generated with Cura_SteamEngine 3.2.1
T0
M82 ;absolute extrusion mode

T1
G92 E0
M109 S207
G0 F15000 X204 Y6 Z2
G280
G1 F1500 E-7.5
;LAYER_COUNT:50
;LAYER:0
M107
M204 S625
M205 X6 Y6
G0 F4285.7 X104.784 Y92.105 Z0.27
M204 S500
M205 X5 Y5
;TYPE:SKIRT
G1 F1500 E0
G1 F1200 X105.026 Y92.414 E0.00581
G1 X105.691 Y93.358 E0.02292
G1 X105.984 Y93.843 E0.03131
G1 X106.162 Y94.244 E0.03781
G1 X106.559 Y95.287 E0.05434
G1 X106.723 Y95.83 E0.06275
G1 X106.778 Y96.124 E0.06718
G1 X106.901 Y96.947 E0.0795
G1 X106.938 Y97.446 E0.08692
G1 X106.953 Y97.449 E0.08714
G1 X107.483 Y97.65 E0.09554
G1 X107.98 Y97.924 E0.10395
G1 X108.433 Y98.265 E0.11235
G1 X108.834 Y98.666 E0.12075
G1 X109.174 Y99.119 E0.12914
G1 X109.448 Y99.616 E0.13754
G1 X109.648 Y100.147 E0.14595
G1 X109.773 Y100.7 E0.15435
G1 X109.818 Y101.303 E0.1633
G1 X109.818 Y102.014 E0.17384
G1 X109.804 Y102.218 E0.17687
G1 X109.963 Y102.229 E0.17923
G1 X110.517 Y102.348 E0.18762
G1 X111.049 Y102.544 E0.19602
G1 X111.549 Y102.812 E0.20442
G1 X112.005 Y103.149 E0.21282
G1 X112.243 Y103.368 E0.21761
G1 X112.346 Y103.471 E0.21977
G1 X112.718 Y103.899 E0.22817
G1 X113.026 Y104.375 E0.23657
G1 X113.264 Y104.89 E0.24497
G1 X113.427 Y105.433 E0.25337
G1 X113.512 Y105.994 E0.26178
G1 X113.525 Y106.317 E0.26656
G1 X113.525 Y108.682 E0.3016
G1 X113.485 Y109.248 E0.31
G1 X113.366 Y109.802 E0.3184
G1 X113.17 Y110.334 E0.3268
G1 X112.902 Y110.834 E0.3352
G1 X112.565 Y111.29 E0.3436
G1 X112.346 Y111.528 E0.34839
G1 X112.243 Y111.631 E0.35055
G1 X111.815 Y112.003 E0.35895
G1 X111.339 Y112.311 E0.36735
G1 X110.824 Y112.549 E0.37575
G1 X110.281 Y112.712 E0.38415
G1 X109.802 Y112.785 E0.39133
G1 X109.818 Y112.985 E0.3943
G1 X109.818 Y113.71 E0.40504
G1 X109.778 Y114.276 E0.41344
G1 X109.659 Y114.83 E0.42184
G1 X109.463 Y115.362 E0.43024
G1 X109.195 Y115.862 E0.43864
G1 X108.858 Y116.318 E0.44704
G1 X108.461 Y116.723 E0.45544
G1 X108.011 Y117.069 E0.46385
G1 X107.517 Y117.347 E0.47224
G1 X107.041 Y117.533 E0.47982
G1 X107.008 Y118.024 E0.4871
G1 X106.885 Y118.6 E0.49583
G1 X106.504 Y119.908 E0.51601
G1 X106.21 Y120.64 E0.5277
G1 X105.687 Y121.645 E0.54448
G1 X105.263 Y122.297 E0.556
G1 X104.904 Y122.747 E0.56453
G1 X104.438 Y123.24 E0.57458
G1 X103.637 Y123.955 E0.59048
G1 X103.022 Y124.407 E0.60179
G1 X102.53 Y124.701 E0.61028
G1 X101.916 Y125 E0.62039
G1 X100.912 Y125.388 E0.63634
G1 X100.37 Y125.555 E0.64474
G1 X99.951 Y125.629 E0.65104
G1 X98.817 Y125.768 E0.66797
G1 X98.055 Y125.789 E0.67926
G1 X97.48 Y125.75 E0.6878
G1 X96.794 Y125.643 E0.69808
G1 X95.733 Y125.383 E0.71426
G1 X95.193 Y125.21 E0.72266
G1 X94.803 Y125.029 E0.72903
G1 X93.818 Y124.506 E0.74555
G1 X93.159 Y124.068 E0.75727
G1 X92.656 Y123.657 E0.7669
G1 X92.158 Y123.172 E0.77719
G1 X91.483 Y122.391 E0.79248
G1 X91.143 Y121.937 E0.80089
G1 X90.964 Y121.63 E0.80615
G1 X90.458 Y120.666 E0.82228
G1 X90.231 Y120.146 E0.83068
G1 X90.109 Y119.738 E0.83699
G1 X89.845 Y118.643 E0.85368
G1 X89.751 Y118.084 E0.86207
G1 X89.733 Y117.757 E0.86692
G1 X89.73 Y117.57 E0.8697
G1 X89.214 Y117.38 E0.87784
G1 X88.714 Y117.112 E0.88624
G1 X88.258 Y116.775 E0.89464
G1 X87.853 Y116.378 E0.90304
G1 X87.507 Y115.928 E0.91145
G1 X87.229 Y115.434 E0.91985
G1 X87.023 Y114.906 E0.92825
G1 X86.893 Y114.354 E0.93665
G1 X86.841 Y113.71 E0.94622
G1 X86.841 Y112.986 E0.95694
G1 X86.859 Y112.733 E0.9607
G1 X86.483 Y112.652 E0.9664
G1 X86.392 Y112.618 E0.96784
G1 X86.366 Y112.738 E0.96965
G1 X86.17 Y113.27 E0.97805
G1 X85.902 Y113.77 E0.98646
G1 X85.565 Y114.226 E0.99486
G1 X85.346 Y114.464 E0.99965
G1 X85.243 Y114.567 E1.0018
G1 X84.815 Y114.939 E1.01021
G1 X84.339 Y115.247 E1.0186
G1 X83.824 Y115.485 E1.02701
G1 X83.281 Y115.648 E1.03541
G1 X82.72 Y115.733 E1.04381
G1 X82.397 Y115.746 E1.0486
G1 X78.142 Y115.746 E1.11163
G1 X78.156 Y115.921 E1.11423
G1 X78.156 Y116.715 E1.12599
G1 X78.116 Y117.281 E1.1344
G1 X77.997 Y117.835 E1.14279
G1 X77.801 Y118.367 E1.15119
G1 X77.533 Y118.867 E1.15959
G1 X77.196 Y119.323 E1.16799
G1 X76.799 Y119.728 E1.17639
G1 X76.349 Y120.074 E1.1848
G1 X75.855 Y120.352 E1.1932
G1 X75.327 Y120.558 E1.2016
G1 X75.305 Y120.563 E1.20193
G1 X75.303 Y120.589 E1.20232
G1 X75.27 Y120.716 E1.20426
G1 X75.264 Y120.974 E1.20808
G1 X75.143 Y121.639 E1.2181
G1 X74.803 Y122.9 E1.23744
G1 X74.617 Y123.436 E1.24585
G1 X74.436 Y123.805 E1.25193
G1 X73.907 Y124.758 E1.26808
G1 X73.528 Y125.323 E1.27816
G1 X72.974 Y126.014 E1.29128
G1 X72.589 Y126.43 E1.29967
G1 X72.012 Y126.881 E1.31052
G1 X70.668 Y127.746 E1.3342
G1 X69.99 Y128.096 E1.3455
G1 X69.507 Y128.29 E1.35321
G1 X68.763 Y128.508 E1.3647
G1 X67.555 Y128.739 E1.38292
G1 X66.992 Y128.806 E1.39131
G1 X66.535 Y128.802 E1.39808
G1 X65.317 Y128.722 E1.41617
G1 X64.755 Y128.645 E1.42457
G1 X64.335 Y128.533 E1.43101
G1 X63.217 Y128.169 E1.44842
G1 X62.691 Y127.956 E1.45683
G1 X62.262 Y127.712 E1.46414
G1 X60.961 Y126.862 E1.48716
G1 X60.509 Y126.519 E1.49557
G1 X60.11 Y126.116 E1.50397
G1 X59.921 Y125.878 E1.50847
G1 X59.053 Y124.699 E1.53016
G1 X58.749 Y124.22 E1.53856
G1 X58.538 Y123.76 E1.54606
G1 X58.082 Y122.576 E1.56485
G1 X57.87 Y121.804 E1.57671
G1 X57.766 Y121.193 E1.58589
G1 X57.71 Y120.626 E1.59433
G1 X57.708 Y120.567 E1.59521
G1 X57.214 Y120.385 E1.60301
G1 X56.714 Y120.117 E1.61141
G1 X56.258 Y119.78 E1.61981
G1 X55.853 Y119.383 E1.62821
G1 X55.507 Y118.933 E1.63662
G1 X55.229 Y118.439 E1.64502
G1 X55.023 Y117.911 E1.65341
G1 X54.893 Y117.359 E1.66181
G1 X54.841 Y116.715 E1.67138
G1 X54.841 Y115.922 E1.68313
G1 X54.853 Y115.747 E1.68573
G1 X50.603 Y115.747 E1.74869
G1 X50.037 Y115.707 E1.75709
G1 X49.483 Y115.588 E1.76548
G1 X48.951 Y115.392 E1.77388
G1 X48.451 Y115.124 E1.78229
G1 X47.995 Y114.787 E1.79069
G1 X47.757 Y114.568 E1.79548
G1 X47.654 Y114.465 E1.79763
G1 X47.282 Y114.037 E1.80604
G1 X46.974 Y113.561 E1.81443
G1 X46.736 Y113.046 E1.82284
G1 X46.573 Y112.503 E1.83124
G1 X46.488 Y111.942 E1.83964
G1 X46.475 Y111.619 E1.84443
G1 X46.475 Y109.382 E1.87757
G1 X46.515 Y108.816 E1.88597
G1 X46.634 Y108.262 E1.89437
G1 X46.83 Y107.73 E1.90276
G1 X47.098 Y107.23 E1.91117
G1 X47.435 Y106.774 E1.91957
G1 X47.654 Y106.536 E1.92436
G1 X47.757 Y106.433 E1.92652
G1 X48.185 Y106.061 E1.93492
G1 X48.661 Y105.753 E1.94331
G1 X49.176 Y105.515 E1.95172
G1 X49.719 Y105.352 E1.96012
G1 X50.28 Y105.267 E1.96852
G1 X50.603 Y105.254 E1.97331
G1 X54.855 Y105.254 E2.0363
G1 X54.841 Y105.079 E2.0389
G1 X54.841 Y104.285 E2.05066
G1 X54.881 Y103.719 E2.05906
G1 X55 Y103.165 E2.06746
G1 X55.196 Y102.633 E2.07586
G1 X55.464 Y102.133 E2.08426
G1 X55.801 Y101.677 E2.09266
G1 X56.198 Y101.272 E2.10106
G1 X56.648 Y100.926 E2.10947
G1 X57.142 Y100.648 E2.11787
G1 X57.67 Y100.442 E2.12626
G1 X57.694 Y100.436 E2.12663
G1 X57.697 Y100.39 E2.12731
G1 X57.876 Y99.201 E2.14512
G1 X58.022 Y98.574 E2.15466
G1 X58.197 Y98.027 E2.16317
G1 X58.503 Y97.316 E2.17463
G1 X59.08 Y96.265 E2.19239
G1 X59.458 Y95.697 E2.2025
G1 X60.013 Y94.999 E2.21571
G1 X60.396 Y94.581 E2.22411
G1 X60.986 Y94.119 E2.23521
G1 X62.325 Y93.258 E2.25879
G1 X62.822 Y92.985 E2.26719
G1 X63.262 Y92.814 E2.27418
G1 X64.352 Y92.461 E2.29116
G1 X64.902 Y92.325 E2.29955
G1 X65.329 Y92.274 E2.30592
G1 X66.49 Y92.198 E2.32315
G1 X67.057 Y92.201 E2.33155
G1 X67.47 Y92.253 E2.33772
G1 X68.675 Y92.471 E2.35586
G1 X69.224 Y92.611 E2.36425
G1 X69.655 Y92.782 E2.37112
G1 X70.707 Y93.271 E2.38831
G1 X71.328 Y93.63 E2.39893
G1 X72.153 Y94.211 E2.41388
G1 X72.592 Y94.57 E2.42228
G1 X73.089 Y95.134 E2.43341
G1 X73.963 Y96.335 E2.45542
G1 X74.264 Y96.816 E2.46382
G1 X74.44 Y97.194 E2.47
G1 X74.844 Y98.193 E2.48596
G1 X75.019 Y98.732 E2.49436
G1 X75.097 Y99.132 E2.50039
G1 X75.278 Y100.398 E2.51934
G1 X75.281 Y100.433 E2.51986
G1 X75.785 Y100.619 E2.52782
G1 X76.284 Y100.888 E2.53621
G1 X76.741 Y101.225 E2.54463
G1 X77.145 Y101.622 E2.55302
G1 X77.49 Y102.072 E2.56142
G1 X77.769 Y102.566 E2.56982
G1 X77.975 Y103.094 E2.57822
G1 X78.104 Y103.647 E2.58663
G1 X78.156 Y104.289 E2.59617
G1 X78.156 Y105.078 E2.60786
G1 X78.144 Y105.253 E2.61045
G1 X82.397 Y105.253 E2.67346
G1 X82.963 Y105.293 E2.68186
G1 X83.517 Y105.412 E2.69025
G1 X83.583 Y105.436 E2.69129
G1 X83.634 Y105.198 E2.6949
G1 X83.83 Y104.666 E2.7033
G1 X84.098 Y104.166 E2.7117
G1 X84.435 Y103.71 E2.7201
G1 X84.654 Y103.472 E2.72489
G1 X84.757 Y103.369 E2.72705
G1 X85.185 Y102.997 E2.73545
G1 X85.661 Y102.689 E2.74385
G1 X86.176 Y102.451 E2.75225
G1 X86.719 Y102.288 E2.76065
G1 X86.861 Y102.266 E2.76278
G1 X86.841 Y102.015 E2.76651
G1 X86.841 Y101.29 E2.77725
G1 X86.881 Y100.724 E2.78566
G1 X87 Y100.17 E2.79405
G1 X87.196 Y99.638 E2.80245
G1 X87.464 Y99.138 E2.81085
G1 X87.801 Y98.682 E2.81925
G1 X88.198 Y98.277 E2.82765
G1 X88.648 Y97.931 E2.83606
G1 X89.142 Y97.653 E2.84446
G1 X89.613 Y97.469 E2.85195
G1 X89.652 Y96.948 E2.85969
G1 X89.822 Y96.242 E2.87044
G1 X90.446 Y94.394 E2.89934
G1 X90.664 Y93.871 E2.90773
G1 X90.96 Y93.376 E2.91627
G1 X91.605 Y92.453 E2.93295
G1 X91.962 Y92.013 E2.94135
G1 X92.236 Y91.745 E2.94703
G1 X92.995 Y91.073 E2.96204
G1 X93.445 Y90.728 E2.97044
G1 X93.737 Y90.553 E2.97549
G1 X94.759 Y89.996 E2.99273
G1 X95.275 Y89.76 E3.00113
G1 X95.699 Y89.628 E3.00771
G1 X96.756 Y89.361 E3.02386
G1 X97.515 Y89.244 E3.03524
G1 X98.152 Y89.208 E3.04469
G1 X98.883 Y89.234 E3.05552
G1 X99.936 Y89.367 E3.07124
G1 X100.614 Y89.512 E3.08152
G1 X101.135 Y89.672 E3.08959
G1 X101.817 Y89.952 E3.10051
G1 X102.801 Y90.466 E3.11695
G1 X103.283 Y90.764 E3.12535
G1 X103.587 Y91.004 E3.13109
G1 X104.385 Y91.702 E3.14679
G1 X104.784 Y92.105 E3.15519
M204 S625
M205 X6 Y6
G0 F4285.7 X104.535 Y92.352
M204 S500
M205 X5 Y5
G1 F1200 X104.739 Y92.616 E3.16013
G1 X105.404 Y93.56 E3.17724
G1 X105.683 Y94.024 E3.18526
G1 X105.835 Y94.369 E3.19084
G1 X106.232 Y95.412 E3.20738
G1 X106.432 Y96.176 E3.21907
G1 X106.555 Y96.999 E3.2314
G1 X106.595 Y97.54 E3.23944
G1 X106.595 Y97.727 E3.24221
G1 X106.898 Y97.798 E3.24682
G1 X107.401 Y97.999 E3.25484
G1 X107.87 Y98.271 E3.26287
G1 X108.293 Y98.609 E3.27089
G1 X108.662 Y99.006 E3.27892
G1 X108.968 Y99.453 E3.28695
G1 X109.206 Y99.94 E3.29498
G1 X109.369 Y100.457 E3.30301
G1 X109.455 Y100.992 E3.31103
G1 X109.468 Y101.303 E3.31564
G1 X109.468 Y102.014 E3.32618
G1 X109.429 Y102.541 E3.334
G1 X109.937 Y102.579 E3.34155
G1 X110.466 Y102.698 E3.34958
G1 X110.971 Y102.893 E3.3576
G1 X111.442 Y103.161 E3.36563
G1 X111.996 Y103.615 E3.37624
G1 X112.099 Y103.718 E3.3784
G1 X112.452 Y104.129 E3.38642
G1 X112.742 Y104.587 E3.39445
G1 X112.961 Y105.082 E3.40247
G1 X113.105 Y105.605 E3.41051
G1 X113.175 Y106.317 E3.4211
G1 X113.175 Y108.682 E3.45614
G1 X113.135 Y109.222 E3.46416
G1 X113.016 Y109.751 E3.47219
G1 X112.821 Y110.256 E3.48021
G1 X112.553 Y110.728 E3.48825
G1 X112.099 Y111.281 E3.49885
G1 X111.996 Y111.384 E3.50101
G1 X111.585 Y111.737 E3.50903
G1 X111.127 Y112.027 E3.51706
G1 X110.632 Y112.246 E3.52508
G1 X110.109 Y112.39 E3.53312
G1 X109.421 Y112.458 E3.54336
G1 X109.451 Y112.636 E3.54603
G1 X109.468 Y112.985 E3.55121
G1 X109.468 Y113.71 E3.56195
G1 X109.428 Y114.25 E3.56997
G1 X109.309 Y114.779 E3.578
G1 X109.114 Y115.284 E3.58602
G1 X108.846 Y115.756 E3.59406
G1 X108.512 Y116.182 E3.60208
G1 X108.119 Y116.555 E3.61011
G1 X107.675 Y116.866 E3.61814
G1 X107.191 Y117.109 E3.62616
G1 X106.695 Y117.271 E3.63389
G1 X106.696 Y117.459 E3.63667
G1 X106.658 Y118 E3.64471
G1 X106.549 Y118.502 E3.65232
G1 X106.168 Y119.81 E3.6725
G1 X105.9 Y120.478 E3.68316
G1 X105.377 Y121.483 E3.69994
G1 X104.99 Y122.079 E3.71047
G1 X104.631 Y122.529 E3.719
G1 X104.205 Y122.979 E3.72817
G1 X103.404 Y123.694 E3.74408
G1 X102.842 Y124.107 E3.75441
G1 X102.35 Y124.401 E3.7629
G1 X101.79 Y124.674 E3.77213
G1 X100.786 Y125.062 E3.78807
G1 X100.267 Y125.219 E3.79611
G1 X99.908 Y125.282 E3.80151
G1 X98.774 Y125.421 E3.81843
G1 X98.078 Y125.44 E3.82874
G1 X97.503 Y125.401 E3.83728
G1 X96.877 Y125.303 E3.84667
G1 X95.816 Y125.043 E3.86285
G1 X95.301 Y124.876 E3.87087
G1 X94.968 Y124.72 E3.87632
G1 X93.983 Y124.197 E3.89284
G1 X93.381 Y123.797 E3.90354
G1 X92.878 Y123.386 E3.91317
G1 X92.423 Y122.943 E3.92257
G1 X91.748 Y122.162 E3.93786
G1 X91.424 Y121.727 E3.9459
G1 X91.274 Y121.467 E3.95035
G1 X90.768 Y120.503 E3.96647
G1 X90.552 Y120.006 E3.9745
G1 X90.449 Y119.656 E3.9799
G1 X90.185 Y118.561 E3.99659
G1 X90.098 Y118.027 E4.0046
G1 X90.083 Y117.752 E4.00868
G1 X90.076 Y117.289 E4.01554
G1 X89.797 Y117.226 E4.01978
G1 X89.292 Y117.031 E4.0278
G1 X88.82 Y116.763 E4.03584
G1 X88.394 Y116.429 E4.04386
G1 X88.021 Y116.036 E4.05189
G1 X87.71 Y115.592 E4.05992
G1 X87.467 Y115.108 E4.06794
G1 X87.299 Y114.593 E4.07596
G1 X87.208 Y114.059 E4.08399
G1 X87.191 Y113.71 E4.08916
G1 X87.191 Y112.986 E4.09989
G1 X87.231 Y112.446 E4.10791
G1 X87.234 Y112.434 E4.10809
G1 X87.063 Y112.421 E4.11063
G1 X86.534 Y112.302 E4.11866
G1 X86.136 Y112.148 E4.12499
G1 X86.135 Y112.158 E4.12513
G1 X86.016 Y112.687 E4.13317
G1 X85.821 Y113.192 E4.14119
G1 X85.553 Y113.664 E4.14923
G1 X85.099 Y114.217 E4.15983
G1 X84.996 Y114.32 E4.16198
G1 X84.585 Y114.673 E4.17001
G1 X84.127 Y114.963 E4.17804
G1 X83.632 Y115.182 E4.18606
G1 X83.109 Y115.326 E4.19409
G1 X82.397 Y115.396 E4.20469
G1 X77.759 Y115.396 E4.27339
G1 X77.789 Y115.572 E4.27604
G1 X77.806 Y115.921 E4.28122
G1 X77.806 Y116.715 E4.29298
G1 X77.766 Y117.255 E4.301
G1 X77.647 Y117.784 E4.30903
G1 X77.452 Y118.289 E4.31705
G1 X77.184 Y118.761 E4.32509
G1 X76.85 Y119.187 E4.33311
G1 X76.457 Y119.56 E4.34113
G1 X76.013 Y119.871 E4.34916
G1 X75.529 Y120.114 E4.35719
G1 X75.014 Y120.282 E4.36521
G1 X74.975 Y120.289 E4.3658
G1 X74.953 Y120.562 E4.36986
G1 X74.921 Y120.687 E4.37177
G1 X74.913 Y120.964 E4.37587
G1 X74.805 Y121.548 E4.38467
G1 X74.465 Y122.809 E4.40402
G1 X74.286 Y123.32 E4.41204
G1 X74.13 Y123.636 E4.41726
G1 X73.601 Y124.589 E4.4334
G1 X73.255 Y125.104 E4.44259
G1 X72.701 Y125.795 E4.45571
G1 X72.332 Y126.191 E4.46373
G1 X71.823 Y126.586 E4.47328
G1 X70.479 Y127.451 E4.49695
G1 X69.86 Y127.771 E4.50727
G1 X69.377 Y127.965 E4.51498
G1 X68.697 Y128.165 E4.52548
G1 X67.489 Y128.396 E4.5437
G1 X66.951 Y128.458 E4.55173
G1 X66.558 Y128.453 E4.55755
G1 X65.34 Y128.373 E4.57563
G1 X64.804 Y128.298 E4.58365
G1 X64.443 Y128.2 E4.58919
G1 X63.325 Y127.836 E4.6066
G1 X62.824 Y127.631 E4.61462
G1 X62.453 Y127.419 E4.62095
G1 X61.152 Y126.569 E4.64397
G1 X60.721 Y126.24 E4.65201
G1 X60.203 Y125.671 E4.6634
G1 X59.335 Y124.492 E4.68509
G1 X59.046 Y124.033 E4.69313
G1 X58.865 Y123.634 E4.69962
G1 X58.409 Y122.45 E4.71841
G1 X58.215 Y121.746 E4.72923
G1 X58.111 Y121.135 E4.73841
G1 X58.06 Y120.617 E4.74612
G1 X58.051 Y120.288 E4.751
G1 X57.797 Y120.231 E4.75485
G1 X57.292 Y120.036 E4.76287
G1 X56.82 Y119.768 E4.77091
G1 X56.394 Y119.434 E4.77893
G1 X56.021 Y119.041 E4.78696
G1 X55.71 Y118.597 E4.79499
G1 X55.467 Y118.113 E4.80301
G1 X55.299 Y117.598 E4.81103
G1 X55.208 Y117.064 E4.81906
G1 X55.191 Y116.715 E4.82423
G1 X55.191 Y115.922 E4.83598
G1 X55.23 Y115.397 E4.84378
G1 X50.603 Y115.397 E4.91232
G1 X50.063 Y115.357 E4.92034
G1 X49.534 Y115.238 E4.92837
G1 X49.029 Y115.043 E4.93639
G1 X48.558 Y114.775 E4.94442
G1 X48.004 Y114.321 E4.95503
G1 X47.901 Y114.218 E4.95719
G1 X47.548 Y113.807 E4.96521
G1 X47.258 Y113.349 E4.97324
G1 X47.039 Y112.854 E4.98126
G1 X46.895 Y112.331 E4.9893
G1 X46.825 Y111.619 E4.9999
G1 X46.825 Y109.382 E5.03303
G1 X46.865 Y108.842 E5.04105
G1 X46.984 Y108.313 E5.04909
G1 X47.179 Y107.808 E5.05711
G1 X47.447 Y107.336 E5.06515
G1 X47.901 Y106.783 E5.07574
G1 X48.004 Y106.68 E5.0779
G1 X48.415 Y106.327 E5.08593
G1 X48.873 Y106.037 E5.09396
