;START_OF_HEADER
;HEADER_VERSION:0.1
;FLAVOR:Griffin
;GENERATOR.NAME:Cura_SteamEngine
;GENERATOR.VERSION:3.2.1
;GENERATOR.BUILD_DATE:2018-02-14
;TARGET_MACHINE.NAME:Ultimaker 3
;EXTRUDER_TRAIN.1.INITIAL_TEMPERATURE:205
;EXTRUDER_TRAIN.1.MATERIAL.VOLUME_USED:733
;EXTRUDER_TRAIN.1.MATERIAL.GUID:506c9f0d-e3aa-4bd4-b2d2-23e2425b1aa9
;EXTRUDER_TRAIN.1.NOZZLE.DIAMETER:0.4
;EXTRUDER_TRAIN.1.NOZZLE.NAME:AA 0.4
;BUILD_PLATE.INITIAL_TEMPERATURE:60
;PRINT.TIME:735
;PRINT.SIZE.MIN.X:86.675
;PRINT.SIZE.MIN.Y:6
;PRINT.SIZE.MIN.Z:0.27
;PRINT.SIZE.MAX.X:204
;PRINT.SIZE.MAX.Y:119.325
;PRINT.SIZE.MAX.Z:9.97
;END_OF_HEADER
;Generated with Cura_SteamEngine 3.2.1
T0
M82 ;absolute extrusion mode

T1
G92 E0
M109 S205
G0 F15000 X204 Y6 Z2
G280
G1 F1500 E-6.5
;LAYER_COUNT:99
;LAYER:0
M107
M204 S625
M205 X6 Y6
G0 F3750 X108.326 Y97.777 Z0.27
M204 S500
M205 X5 Y5
;TYPE:SKIRT
G1 F1500 E0
G1 F1200 X108.819 Y98.327 E0.01094
G1 X109.25 Y98.927 E0.02188
G1 X109.614 Y99.57 E0.03283
G1 X109.906 Y100.248 E0.04377
G1 X110.123 Y100.954 E0.05471
G1 X110.262 Y101.68 E0.06566
G1 X110.325 Y102.603 E0.07936
G1 X110.325 Y112.397 E0.22444
G1 X110.285 Y113.135 E0.23539
G1 X110.166 Y113.863 E0.24632
G1 X109.968 Y114.575 E0.25727
G1 X109.695 Y115.261 E0.2682
G1 X109.349 Y115.914 E0.27915
G1 X108.935 Y116.526 E0.29009
G1 X108.326 Y117.223 E0.30381
G1 X108.223 Y117.326 E0.30596
G1 X107.673 Y117.819 E0.3169
G1 X107.073 Y118.25 E0.32785
G1 X106.43 Y118.614 E0.33879
G1 X105.752 Y118.906 E0.34973
G1 X105.046 Y119.123 E0.36067
G1 X104.32 Y119.262 E0.37162
G1 X103.397 Y119.325 E0.38532
G1 X93.603 Y119.325 E0.53041
G1 X92.865 Y119.285 E0.54135
G1 X92.137 Y119.166 E0.55228
G1 X91.425 Y118.968 E0.56323
G1 X90.739 Y118.695 E0.57417
G1 X90.086 Y118.349 E0.58511
G1 X89.474 Y117.935 E0.59606
G1 X88.777 Y117.326 E0.60977
G1 X88.674 Y117.223 E0.61193
G1 X88.181 Y116.673 E0.62287
G1 X87.75 Y116.073 E0.63381
G1 X87.386 Y115.43 E0.64476
G1 X87.094 Y114.752 E0.65569
G1 X86.877 Y114.046 E0.66663
G1 X86.738 Y113.32 E0.67758
G1 X86.675 Y112.397 E0.69129
G1 X86.675 Y102.603 E0.83637
G1 X86.715 Y101.865 E0.84732
G1 X86.834 Y101.137 E0.85824
G1 X87.032 Y100.425 E0.86919
G1 X87.305 Y99.739 E0.88013
G1 X87.651 Y99.086 E0.89108
G1 X88.065 Y98.474 E0.90202
G1 X88.674 Y97.777 E0.91573
G1 X88.777 Y97.674 E0.91789
G1 X89.327 Y97.181 E0.92883
G1 X89.927 Y96.75 E0.93977
G1 X90.57 Y96.386 E0.95072
G1 X91.248 Y96.094 E0.96165
G1 X91.954 Y95.877 E0.9726
G1 X92.68 Y95.738 E0.98355
G1 X93.603 Y95.675 E0.99725
G1 X103.397 Y95.675 E1.14233
G1 X104.135 Y95.715 E1.15328
G1 X104.863 Y95.834 E1.16421
G1 X105.575 Y96.032 E1.17515
G1 X106.261 Y96.305 E1.18609
G1 X106.914 Y96.651 E1.19704
G1 X107.526 Y97.065 E1.20798
G1 X108.223 Y97.674 E1.22169
G1 X108.326 Y97.777 E1.22385
M204 S625
M205 X6 Y6
G0 F3750 X108.079 Y98.024
M204 S500
M205 X5 Y5
G1 F1200 X108.558 Y98.561 E1.23451
G1 X108.975 Y99.147 E1.24517
G1 X109.325 Y99.776 E1.25583
G1 X109.603 Y100.439 E1.26648
G1 X109.805 Y101.13 E1.27714
G1 X109.93 Y101.838 E1.28779
G1 X109.975 Y102.603 E1.29914
G1 X109.975 Y112.397 E1.44423
G1 X109.935 Y113.115 E1.45488
G1 X109.816 Y113.825 E1.46554
G1 X109.618 Y114.517 E1.4762
G1 X109.345 Y115.182 E1.48685
G1 X109 Y115.814 E1.49752
G1 X108.587 Y116.403 E1.50818
G1 X108.079 Y116.976 E1.51952
G1 X107.976 Y117.079 E1.52168
G1 X107.439 Y117.558 E1.53234
G1 X106.853 Y117.975 E1.54299
G1 X106.224 Y118.325 E1.55365
G1 X105.561 Y118.603 E1.5643
G1 X104.87 Y118.805 E1.57497
G1 X104.162 Y118.93 E1.58562
G1 X103.397 Y118.975 E1.59697
G1 X93.603 Y118.975 E1.74205
G1 X92.885 Y118.935 E1.7527
G1 X92.175 Y118.816 E1.76337
G1 X91.483 Y118.618 E1.77403
G1 X90.818 Y118.345 E1.78468
G1 X90.186 Y118 E1.79534
G1 X89.597 Y117.587 E1.806
G1 X89.024 Y117.079 E1.81734
G1 X88.921 Y116.976 E1.8195
G1 X88.442 Y116.439 E1.83016
G1 X88.025 Y115.853 E1.84082
G1 X87.675 Y115.224 E1.85148
G1 X87.397 Y114.561 E1.86213
G1 X87.195 Y113.87 E1.87279
G1 X87.07 Y113.162 E1.88344
G1 X87.025 Y112.397 E1.89479
G1 X87.025 Y102.603 E2.03988
G1 X87.065 Y101.885 E2.05053
G1 X87.184 Y101.175 E2.06119
G1 X87.382 Y100.483 E2.07185
G1 X87.655 Y99.818 E2.0825
G1 X88 Y99.186 E2.09317
G1 X88.413 Y98.597 E2.10383
G1 X88.921 Y98.024 E2.11517
G1 X89.024 Y97.921 E2.11733
G1 X89.561 Y97.442 E2.12799
G1 X90.147 Y97.025 E2.13864
G1 X90.776 Y96.675 E2.1493
G1 X91.439 Y96.397 E2.15995
G1 X92.13 Y96.195 E2.17062
G1 X92.838 Y96.07 E2.18127
G1 X93.603 Y96.025 E2.19262
G1 X103.397 Y96.025 E2.3377
G1 X104.115 Y96.065 E2.34835
G1 X104.825 Y96.184 E2.35902
G1 X105.517 Y96.382 E2.36968
G1 X106.182 Y96.655 E2.38033
G1 X106.814 Y97 E2.39099
G1 X107.403 Y97.413 E2.40165
G1 X107.976 Y97.921 E2.41299
G1 X108.079 Y98.024 E2.41515
M204 S625
M205 X6 Y6
G0 F3750 X107.831 Y98.272
M204 S500
M205 X5 Y5
G1 F1200 X108.297 Y98.794 E2.42552
G1 X108.7 Y99.366 E2.43588
G1 X109.035 Y99.98 E2.44624
G1 X109.298 Y100.629 E2.45662
G1 X109.485 Y101.303 E2.46698
G1 X109.595 Y101.994 E2.47734
G1 X109.625 Y102.603 E2.48638
G1 X109.625 Y112.397 E2.63146
G1 X109.585 Y113.096 E2.64183
G1 X109.466 Y113.785 E2.65219
G1 X109.268 Y114.456 E2.66255
G1 X108.996 Y115.101 E2.67292
G1 X108.652 Y115.71 E2.68328
G1 X108.24 Y116.276 E2.69365
G1 X107.831 Y116.728 E2.70268
G1 X107.728 Y116.831 E2.70484
G1 X107.206 Y117.297 E2.7152
G1 X106.634 Y117.7 E2.72557
G1 X106.02 Y118.035 E2.73593
G1 X105.371 Y118.298 E2.7463
G1 X104.697 Y118.485 E2.75666
G1 X104.006 Y118.595 E2.76703
G1 X103.397 Y118.625 E2.77606
G1 X93.603 Y118.625 E2.92114
G1 X92.904 Y118.585 E2.93151
G1 X92.215 Y118.466 E2.94187
G1 X91.544 Y118.268 E2.95223
G1 X90.899 Y117.996 E2.9626
G1 X90.29 Y117.652 E2.97297
G1 X89.724 Y117.24 E2.98334
G1 X89.272 Y116.831 E2.99237
G1 X89.169 Y116.728 E2.99452
G1 X88.703 Y116.206 E3.00489
G1 X88.3 Y115.634 E3.01525
G1 X87.965 Y115.02 E3.02561
G1 X87.702 Y114.371 E3.03599
G1 X87.515 Y113.697 E3.04635
G1 X87.405 Y113.006 E3.05671
G1 X87.375 Y112.397 E3.06575
G1 X87.375 Y102.603 E3.21083
G1 X87.415 Y101.904 E3.2212
G1 X87.534 Y101.215 E3.23156
G1 X87.732 Y100.544 E3.24192
G1 X88.004 Y99.899 E3.25229
G1 X88.348 Y99.29 E3.26265
G1 X88.76 Y98.724 E3.27302
G1 X89.169 Y98.272 E3.28205
G1 X89.272 Y98.169 E3.28421
G1 X89.794 Y97.703 E3.29457
G1 X90.366 Y97.3 E3.30494
G1 X90.98 Y96.965 E3.3153
G1 X91.629 Y96.702 E3.32567
G1 X92.303 Y96.515 E3.33604
G1 X92.994 Y96.405 E3.3464
G1 X93.603 Y96.375 E3.35543
G1 X103.397 Y96.375 E3.50051
G1 X104.096 Y96.415 E3.51089
G1 X104.785 Y96.534 E3.52124
G1 X105.456 Y96.732 E3.53161
G1 X106.101 Y97.004 E3.54198
G1 X106.71 Y97.348 E3.55234
G1 X107.276 Y97.76 E3.56271
G1 X107.728 Y98.169 E3.57174
G1 X107.831 Y98.272 E3.57389
M204 S625
M205 X6 Y6
G0 F3750 X107.584 Y98.519
M204 S500
M205 X5 Y5
G1 F1200 X108.035 Y99.027 E3.58396
G1 X108.423 Y99.585 E3.59403
G1 X108.744 Y100.184 E3.60409
G1 X108.992 Y100.816 E3.61415
G1 X109.164 Y101.474 E3.62422
G1 X109.257 Y102.147 E3.63429
G1 X109.275 Y102.603 E3.64105
G1 X109.275 Y112.397 E3.78613
G1 X109.235 Y113.075 E3.79619
G1 X109.116 Y113.744 E3.80626
G1 X108.919 Y114.394 E3.81632
G1 X108.647 Y115.017 E3.82639
G1 X108.303 Y115.603 E3.83645
G1 X107.893 Y116.145 E3.84652
G1 X107.584 Y116.481 E3.85328
G1 X107.481 Y116.584 E3.85544
G1 X106.973 Y117.035 E3.8655
G1 X106.415 Y117.423 E3.87557
G1 X105.816 Y117.744 E3.88564
G1 X105.184 Y117.992 E3.89569
G1 X104.526 Y118.164 E3.90577
G1 X103.853 Y118.257 E3.91583
G1 X103.397 Y118.275 E3.92259
G1 X93.603 Y118.275 E4.06768
G1 X92.925 Y118.235 E4.07774
G1 X92.256 Y118.116 E4.0878
G1 X91.606 Y117.919 E4.09786
G1 X90.983 Y117.647 E4.10793
G1 X90.397 Y117.303 E4.118
G1 X89.855 Y116.893 E4.12807
G1 X89.519 Y116.584 E4.13483
G1 X89.416 Y116.481 E4.13699
G1 X88.965 Y115.973 E4.14705
G1 X88.577 Y115.415 E4.15712
G1 X88.256 Y114.816 E4.16718
G1 X88.008 Y114.184 E4.17724
G1 X87.836 Y113.526 E4.18731
G1 X87.743 Y112.853 E4.19738
G1 X87.725 Y112.397 E4.20414
G1 X87.725 Y102.603 E4.34922
G1 X87.765 Y101.925 E4.35928
G1 X87.884 Y101.256 E4.36935
G1 X88.081 Y100.606 E4.37941
G1 X88.353 Y99.983 E4.38948
G1 X88.697 Y99.397 E4.39954
G1 X89.107 Y98.855 E4.40961
G1 X89.416 Y98.519 E4.41637
G1 X89.519 Y98.416 E4.41853
G1 X90.027 Y97.965 E4.42859
G1 X90.585 Y97.577 E4.43866
G1 X91.184 Y97.256 E4.44873
G1 X91.816 Y97.008 E4.45879
G1 X92.474 Y96.836 E4.46886
G1 X93.147 Y96.743 E4.47892
G1 X93.603 Y96.725 E4.48568
G1 X103.397 Y96.725 E4.63077
G1 X104.075 Y96.765 E4.64083
G1 X104.744 Y96.884 E4.65089
G1 X105.394 Y97.081 E4.66095
G1 X106.017 Y97.353 E4.67102
G1 X106.603 Y97.697 E4.68109
G1 X107.145 Y98.107 E4.69116
G1 X107.481 Y98.416 E4.69792
G1 X107.584 Y98.519 E4.70008
M204 S625
M205 X6 Y6
G0 F3750 X107.336 Y98.767
M204 S500
M205 X5 Y5
G1 F1200 X107.773 Y99.26 E4.70984
G1 X108.146 Y99.802 E4.71958
G1 X108.451 Y100.386 E4.72934
G1 X108.683 Y101.002 E4.73909
G1 X108.839 Y101.642 E4.74885
G1 X108.925 Y102.603 E4.76314
G1 X108.925 Y112.397 E4.90822
G1 X108.885 Y113.054 E4.91797
G1 X108.766 Y113.702 E4.92773
G1 X108.569 Y114.33 E4.93748
G1 X108.297 Y114.93 E4.94724
G1 X107.955 Y115.493 E4.957
G1 X107.336 Y116.233 E4.97129
G1 X107.233 Y116.336 E4.97345
G1 X106.74 Y116.773 E4.98321
G1 X106.198 Y117.146 E4.99296
G1 X105.614 Y117.451 E5.00272
G1 X104.998 Y117.683 E5.01247
G1 X104.358 Y117.839 E5.02222
G1 X103.397 Y117.925 E5.03652
G1 X93.603 Y117.925 E5.1816
G1 X92.946 Y117.885 E5.19135
G1 X92.298 Y117.766 E5.20111
G1 X91.67 Y117.569 E5.21086
G1 X91.07 Y117.297 E5.22062
G1 X90.507 Y116.955 E5.23037
G1 X89.767 Y116.336 E5.24467
G1 X89.664 Y116.233 E5.24682
G1 X89.227 Y115.74 E5.25658
G1 X88.854 Y115.198 E5.26633
G1 X88.549 Y114.614 E5.27609
G1 X88.317 Y113.998 E5.28584
G1 X88.161 Y113.358 E5.2956
G1 X88.075 Y112.397 E5.30989
G1 X88.075 Y102.603 E5.45497
G1 X88.115 Y101.946 E5.46472
G1 X88.234 Y101.298 E5.47448
G1 X88.431 Y100.67 E5.48423
G1 X88.703 Y100.07 E5.49399
G1 X89.045 Y99.507 E5.50375
G1 X89.664 Y98.767 E5.51804
G1 X89.767 Y98.664 E5.5202
G1 X90.26 Y98.227 E5.52996
G1 X90.802 Y97.854 E5.5397
G1 X91.386 Y97.549 E5.54946
G1 X92.002 Y97.317 E5.55921
G1 X92.642 Y97.161 E5.56897
G1 X93.603 Y97.075 E5.58326
G1 X103.397 Y97.075 E5.72834
G1 X104.054 Y97.115 E5.7381
G1 X104.702 Y97.234 E5.74785
G1 X105.33 Y97.431 E5.7576
G1 X105.93 Y97.703 E5.76736
G1 X106.493 Y98.045 E5.77712
G1 X107.233 Y98.664 E5.79141
G1 X107.336 Y98.767 E5.79357
M204 S625
M205 X6 Y6
G0 F3750 X107.089 Y99.014
M204 S500
M205 X5 Y5
G1 F1200 X107.51 Y99.492 E5.80301
G1 X107.868 Y100.019 E5.81244
G1 X108.157 Y100.586 E5.82187
G1 X108.373 Y101.185 E5.8313
G1 X108.512 Y101.807 E5.84074
G1 X108.575 Y102.603 E5.85257
G1 X108.575 Y112.397 E5.99765
G1 X108.535 Y113.033 E6.00709
G1 X108.416 Y113.658 E6.01652
G1 X108.219 Y114.264 E6.02596
G1 X107.948 Y114.84 E6.03539
G1 X107.607 Y115.378 E6.04482
G1 X107.089 Y115.986 E6.05665
G1 X106.986 Y116.089 E6.05881
G1 X106.508 Y116.51 E6.06825
G1 X105.981 Y116.868 E6.07769
G1 X105.414 Y117.157 E6.08711
G1 X104.815 Y117.373 E6.09655
G1 X104.193 Y117.512 E6.10599
G1 X103.397 Y117.575 E6.11781
G1 X93.603 Y117.575 E6.2629
G1 X92.967 Y117.535 E6.27234
G1 X92.342 Y117.416 E6.28176
G1 X91.736 Y117.219 E6.2912
G1 X91.16 Y116.948 E6.30063
G1 X90.622 Y116.607 E6.31007
G1 X90.014 Y116.089 E6.3219
G1 X89.911 Y115.986 E6.32406
G1 X89.49 Y115.508 E6.33349
G1 X89.132 Y114.981 E6.34293
G1 X88.843 Y114.414 E6.35236
G1 X88.627 Y113.815 E6.36179
G1 X88.488 Y113.193 E6.37123
G1 X88.425 Y112.397 E6.38306
G1 X88.425 Y102.603 E6.52814
G1 X88.465 Y101.967 E6.53758
G1 X88.584 Y101.342 E6.547
G1 X88.781 Y100.736 E6.55644
G1 X89.052 Y100.16 E6.56587
G1 X89.393 Y99.622 E6.57531
G1 X89.911 Y99.014 E6.58714
G1 X90.014 Y98.911 E6.5893
G1 X90.492 Y98.49 E6.59873
G1 X91.019 Y98.132 E6.60817
G1 X91.586 Y97.843 E6.6176
G1 X92.185 Y97.627 E6.62703
G1 X92.807 Y97.488 E6.63647
G1 X93.603 Y97.425 E6.6483
G1 X103.397 Y97.425 E6.79338
G1 X104.033 Y97.465 E6.80282
G1 X104.658 Y97.584 E6.81225
G1 X105.264 Y97.781 E6.82169
G1 X105.84 Y98.052 E6.83112
G1 X106.378 Y98.393 E6.84055
G1 X106.986 Y98.911 E6.85238
G1 X107.089 Y99.014 E6.85454
M204 S625
M205 X6 Y6
G0 F3750 X106.841 Y99.262
M204 S500
M205 X5 Y5
G1 F1200 X107.246 Y99.724 E6.86364
G1 X107.588 Y100.234 E6.87274
G1 X107.861 Y100.785 E6.88185
G1 X108.06 Y101.366 E6.89094
G1 X108.182 Y101.969 E6.90006
G1 X108.225 Y102.603 E6.90947
G1 X108.225 Y112.397 E7.05455
G1 X108.185 Y113.01 E7.06365
G1 X108.066 Y113.613 E7.07276
G1 X107.869 Y114.195 E7.08186
G1 X107.599 Y114.747 E7.09096
G1 X107.259 Y115.259 E7.10007
G1 X106.841 Y115.738 E7.10948
G1 X106.738 Y115.841 E7.11164
G1 X106.276 Y116.246 E7.12074
G1 X105.766 Y116.588 E7.12984
G1 X105.215 Y116.861 E7.13895
G1 X104.634 Y117.06 E7.14804
G1 X104.031 Y117.182 E7.15716
G1 X103.397 Y117.225 E7.16657
G1 X93.603 Y117.225 E7.31165
G1 X92.99 Y117.185 E7.32075
G1 X92.387 Y117.066 E7.32986
G1 X91.805 Y116.869 E7.33896
G1 X91.253 Y116.599 E7.34806
G1 X90.741 Y116.259 E7.35717
G1 X90.262 Y115.841 E7.36658
G1 X90.159 Y115.738 E7.36874
G1 X89.754 Y115.276 E7.37784
G1 X89.412 Y114.766 E7.38694
G1 X89.139 Y114.215 E7.39605
G1 X88.94 Y113.634 E7.40515
G1 X88.818 Y113.031 E7.41426
G1 X88.775 Y112.397 E7.42367
G1 X88.775 Y102.603 E7.56875
G1 X88.815 Y101.99 E7.57785
G1 X88.934 Y101.387 E7.58696
G1 X89.131 Y100.805 E7.59606
G1 X89.401 Y100.253 E7.60516
G1 X89.741 Y99.741 E7.61427
G1 X90.159 Y99.262 E7.62368
G1 X90.262 Y99.159 E7.62584
G1 X90.724 Y98.754 E7.63494
G1 X91.234 Y98.412 E7.64404
G1 X91.785 Y98.139 E7.65315
G1 X92.366 Y97.94 E7.66225
G1 X92.969 Y97.818 E7.67136
G1 X93.603 Y97.775 E7.68077
G1 X103.397 Y97.775 E7.82585
G1 X104.01 Y97.815 E7.83495
G1 X104.613 Y97.934 E7.84406
G1 X105.195 Y98.131 E7.85316
G1 X105.747 Y98.401 E7.86226
G1 X106.259 Y98.741 E7.87137
G1 X106.738 Y99.159 E7.88079
G1 X106.841 Y99.262 E7.88294
M204 S625
M205 X6 Y6
G0 F3750 X106.594 Y99.509
M204 S500
M205 X5 Y5
G1 F1200 X106.982 Y99.955 E7.8917
G1 X107.308 Y100.449 E7.90047
G1 X107.563 Y100.982 E7.90922
G1 X107.745 Y101.544 E7.91797
G1 X107.849 Y102.126 E7.92673
G1 X107.875 Y102.603 E7.93381
G1 X107.875 Y112.397 E8.07889
G1 X107.835 Y112.987 E8.08765
G1 X107.716 Y113.566 E8.0964
G1 X107.52 Y114.124 E8.10516
G1 X107.25 Y114.65 E8.11392
G1 X106.912 Y115.135 E8.12268
G1 X106.594 Y115.491 E8.12975
G1 X106.491 Y115.594 E8.13191
G1 X106.045 Y115.982 E8.14066
G1 X105.551 Y116.308 E8.14943
G1 X105.018 Y116.563 E8.15819
G1 X104.456 Y116.745 E8.16694
G1 X103.874 Y116.849 E8.17569
G1 X103.397 Y116.875 E8.18277
G1 X93.603 Y116.875 E8.32785
G1 X93.013 Y116.835 E8.33661
G1 X92.434 Y116.716 E8.34537
G1 X91.876 Y116.52 E8.35413
G1 X91.35 Y116.25 E8.36289
G1 X90.865 Y115.912 E8.37164
G1 X90.509 Y115.594 E8.37872
G1 X90.406 Y115.491 E8.38087
G1 X90.018 Y115.045 E8.38963
G1 X89.692 Y114.551 E8.3984
G1 X89.437 Y114.018 E8.40715
G1 X89.255 Y113.456 E8.4159
G1 X89.151 Y112.874 E8.42466
G1 X89.125 Y112.397 E8.43174
G1 X89.125 Y102.603 E8.57682
G1 X89.165 Y102.013 E8.58558
G1 X89.284 Y101.434 E8.59433
G1 X89.48 Y100.876 E8.60309
G1 X89.75 Y100.35 E8.61185
G1 X90.088 Y99.865 E8.62061
G1 X90.406 Y99.509 E8.62768
G1 X90.509 Y99.406 E8.62984
G1 X90.955 Y99.018 E8.6386
G1 X91.449 Y98.692 E8.64736
G1 X91.982 Y98.437 E8.65612
G1 X92.544 Y98.255 E8.66487
G1 X93.126 Y98.151 E8.67362
G1 X93.603 Y98.125 E8.6807
G1 X103.397 Y98.125 E8.82578
G1 X103.987 Y98.165 E8.83454
G1 X104.566 Y98.284 E8.8433
G1 X105.124 Y98.48 E8.85206
G1 X105.65 Y98.75 E8.86082
G1 X106.135 Y99.088 E8.86957
G1 X106.491 Y99.406 E8.87665
G1 X106.594 Y99.509 E8.8788
M204 S625
M205 X6 Y6
G0 F3750 X106.346 Y99.757
M204 S500
M205 X5 Y5
G1 F1200 X106.718 Y100.185 E8.8872
G1 X107.026 Y100.661 E8.8956
G1 X107.264 Y101.176 E8.90401
G1 X107.427 Y101.719 E8.9124
G1 X107.512 Y102.28 E8.92081
G1 X107.525 Y102.603 E8.9256
G1 X107.525 Y112.397 E9.07068
G1 X107.485 Y112.963 E9.07908
G1 X107.366 Y113.517 E9.08748
G1 X107.17 Y114.049 E9.09588
G1 X106.902 Y114.549 E9.10428
G1 X106.565 Y115.005 E9.11268
G1 X106.346 Y115.243 E9.11747
G1 X106.243 Y115.346 E9.11963
G1 X105.815 Y115.718 E9.12803
G1 X105.339 Y116.026 E9.13643
G1 X104.824 Y116.264 E9.14483
G1 X104.281 Y116.427 E9.15323
G1 X103.72 Y116.512 E9.16163
G1 X103.397 Y116.525 E9.16642
G1 X93.603 Y116.525 E9.3115
G1 X93.037 Y116.485 E9.31991
G1 X92.483 Y116.366 E9.3283
